X: 0851
M: 6/8
L: 1/8
K: Em
|:\
g2a b2c' | bag fed | Tgfe agf | bag fed |\
g2a b2c' | bag f/g/e/f/d | (3g/a/g (3f/g/f/ e (3a/b/a/ (3g/a/g/ f | bag (3f/g/f/ (3e/f/e/ d |
eEE EFG | GAB B^c^d | eEE GAB | B>AB E3 |]

